!!!!SEGMENT: pl-sa--l-1643--081_anonim--kto-to-tam-gdzie-jest-to-narodzone.krn
!!!cenid: 16xx:1439
!!!COM: Anonim
!!!COM-rismid: pe30004985
!!!CDT:
!!!CNT:
!!!OTL: Kto to tam gdzie jest to narodzone
!!!PDT:
!!!AGN: Sacred
!!!SMS-siglum: PL-SA
!!!SMS-shelfmark: L 1643
!!!SMS-shelfwork: 081 W
!!!SMS-variant:
!!!SMS-altvar:
!!!NIFC-rismid: 1001064401
!!!URL-scan: http://repozytorium.nifc.pl/skany/pl-sa-nut--l1643
!!!ONB-nifc: UWAGA: 8 ksiąg. Primi chori: 1mus Cantus (x), C 2dus (128-129), C 3tius (x), Bassus (x); Secondi chori: Primus Cantus (x), C 2dus (x), Altus (x), Bassus (x). UWAGA: Nie dodawać pustych linii, chyba że w rękopisie pojawiają się dodatkowe oznaczenia dotyczące pełnej obsady (a 4, a 8 itp.)
**kern	**text	**text
*I"Cantus 2dus Primi Chori.	*	*
*I'Coro 1 S 2	*	*
*clefC1	*	*
*k[b-]	*	*
*M2/2	*	*
*met(C|)	*	*
=1	=1	=1
!LO:TX:t=P:problem:oddech/cezura na różnej wysokości:global	!	!
1r	.	.
=2-	=2-	=2-
2a\	Kto	.
2cc\	to	.
=3-	=3-	=3-
1r	.	.
=4-	=4-	=4-
2a\	kto	.
2cc\	to	.
=5-	=5-	=5-
2r	.	.
4r	.	.
4a\	kto	.
=6-	=6-	=6-
4.cc\	to	.
8a\	kto	.
4.cc\	to	.
8a\	kto	.
=7-	=7-	=7-
1cc\	to	.
=8-	=8-	=8-
1a\,<	tam	.
=9-	=9-	=9-
2g/	gdzie	.
2b-\	ieſt	.
=10-	=10-	=10-
2cc\	to	.
2a\	na-	.
=11-	=11-	=11-
1g\	-ro-	.
=12-	=12-	=12-
2a\	-dzo-	.
2.cc\	-ne	.
=13-	=13-	=13-
.	.	.
8b-\L	dzie-	.
!LO:SIC:v:t=custos b-	!	!
8a\J	.	.
!LO:LB:g=original	!	!
2b-\	-ciąt-	.
=14-	=14-	=14-
1cc\,<	-ko	.
=15-	=15-	=15-
2cc\	w be-	.
4cc\	-tle-	.
4b-\	-iem	.
=16-	=16-	=16-
4a\	mie-	.
4g/	-scie	.
4f/	w iasł-	.
4g/	-kach	.
=17-	=17-	=17-
2a\	ieſt	.
4b-\	po-	.
4cc\	-ło-	.
=18-	=18-	=18-
4g/	-zo-	.
4a,<\	-ne	.
2.cc\	po-	.
=19-	=19-	=19-
.	.	.
8b-\L	-ło-	.
8a\J	.	.
2g/	-zo-	.
=20-	=20-	=20-
1a\	-ne	.
=21-	=21-	=21-
0r	.	.
=22-	=22-	=22-
.	.	.
=23-	=23-	=23-
1r	.	.
=24-	=24-	=24-
2r	.	.
2cc\	po-	.
=25-	=25-	=25-
!LO:SIC:v:t=custos cc	!	!
2g/	-ło-	.
!LO:LB:g=original	!	!
2cc\	-zo-	.
=26-	=26-	=26-
1cc\	-ne,	.
=27-	=27-	=27-
2r	.	.
4r	.	.
4a\	ktoz	.
=28-	=28-	=28-
2g/	to	.
2r	.	.
=29-	=29-	=29-
4r	.	.
4a\	kto	.
4.g/	tam	.
8a\	kto	.
=30-	=30-	=30-
4.g/	to	.
8a\	kto	.
4.g/	to	.
8a\	kto	.
=31-	=31-	=31-
1g\	to	.
=32-	=32-	=32-
1r	.	.
=33-	=33-	=33-
2r	.	.
2a\	po-	.
=34-	=34-	=34-
1a\	-moz	.
=35-	=35-	=35-
2a\	nam	.
2a\	po-	.
=36-	=36-	=36-
1cc\	-moz	.
=37-	=37-	=37-
!LO:SIC:v:t=custos a	!	!
1cc\	nam	.
=38-	=38-	=38-
!LO:LB:g=original	!	!
4a\	ko-	.
4cc\	-łÿ-	.
4cc\	-sa-	.
4a\	-ci	.
=39-	=39-	=39-
4a\	ko-	.
4cc\	-łÿ-	.
4cc\	-sa-	.
4a\	-ci	.
=40-	=40-	=40-
2g/	dzie-	.
2cc\	-ciąt-	.
=41-	=41-	=41-
1cc\	-ka	.
=42-	=42-	=42-
1r	.	.
=43-	=43-	=43-
4cc\	co	.
4cc\	chce-	.
2a\	-cie	.
=44-	=44-	=44-
1r	.	.
=45-	=45-	=45-
4cc\	co	.
4cc\	chce-	.
2a\	-cie	.
=46-	=46-	=46-
0r	.	.
=47-	=47-	=47-
.	.	.
=48-	=48-	=48-
1b-\	po-	.
=49-	=49-	=49-
2a\	-moz	.
2b-\	nam	.
=50-	=50-	=50-
!LO:SIC:v:t=custos cc	!	!
1cc\	po-	.
=51-	=51-	=51-
!LO:LB:g=original	!	!
2cc\	-moz	.
2a,<\	nam	.
=52-	=52-	=52-
4cc\	ko-	.
4cc\	-łÿ-	.
4cc\	-sa-	.
4a\	-ci	.
=53-	=53-	=53-
4cc\	ko-	.
4cc\	-łÿ-	.
4cc\	-sa-	.
4a\	-ci	.
=54-	=54-	=54-
2g/	dzie-	.
2cc\	-ciąt-	.
=55-	=55-	=55-
1cc\	-ka	.
=56-	=56-	=56-
1r	.	.
=57-	=57-	=57-
4cc\	Nÿ-	.
4a\	-nai,	.
4cc\	nÿ-	.
4cc\	-nai,	.
=58-	=58-	=58-
4cc\	nÿ-	.
4a\	-nai	.
4cc\	nÿ-	.
!LO:SIC:v:t=custos cc	!	!
4cc\	-nai	.
=59-	=59-	=59-
!LO:LB:g=original	!	!
2cc\	dzie-	.
2cc\	-ciąt-	.
=60-	=60-	=60-
1a\	-k[o]	.
=61-	=61-	=61-
1r	.	.
=62-	=62-	=62-
4dd\	nÿ-	.
4b-\	-nai	.
*	*ij	*
4dd\	nÿ-	.
4b-\	-nai	.
*	*Xij	*
=63-	=63-	=63-
4dd\	nÿ-	.
4b-\	-nai	.
*	*ij	*
4dd\	nÿ-	.
4b-\	-nai	.
*	*Xij	*
=64-	=64-	=64-
2dd\	dzie-	.
2dd\	-ciąt-	.
=65-	=65-	=65-
!LO:TX:t=P:problem:# below	!	!
1b#X\	-ko,	.
=66-	=66-	=66-
1r	.	.
=67-	=67-	=67-
4cc\	nÿ-	.
4a\	-nai	.
*	*ij	*
4cc\	nÿ-	.
4cc\	-nai	.
*	*Xij	*
=68-	=68-	=68-
4cc\	nÿ-	.
4a\	-nai	.
*	*ij	*
4cc\	nÿ-	.
4cc\	-nai	.
*	*Xij	*
=69-	=69-	=69-
!LO:SIC:v:t=custos cc	!	!
!LO:SIC:v:l:t=custos "ciąt"	!	!
2g/	dzie-	.
!LO:PB:g=original	!	!
2cc\	-ciąt-	.
=70-	=70-	=70-
1a\	-ko	.
=71-	=71-	=71-
00r	.	.
=72-	=72-	=72-
.	.	.
=73-	=73-	=73-
.	.	.
=74-	=74-	=74-
.	.	.
=75-	=75-	=75-
2r	.	.
2a\	kro-	.
=76-	=76-	=76-
2b-y\	-leſ-	.
2cc\	-tuo	.
=77-	=77-	=77-
2b-\	nie-	.
2g/	-bie-	.
=78-	=78-	=78-
2a\	-skie	.
2cc\	kro-	.
=79-	=79-	=79-
2b-\	-les-	.
2a\	-two	.
=80-	=80-	=80-
2g/	nie-	.
2g/	-bie-	.
=81-	=81-	=81-
2a\	-skie	.
4a\	spi	.
4a\	te-	.
=82-	=82-	=82-
2cc,<\	-dÿ	.
4cc\	spi	.
4cc\	te-	.
=83-	=83-	=83-
!LO:SIC:v:t=custos dd	!	!
2cc\	-dÿ	.
!LO:LB:g=original	!	!
*	*ij	*
4dd\	spi	.
4dd\	te-	.
=84-	=84-	=84-
2dd,<\	-dÿ	.
*	*Xij	*
4b-\	spi	.
4b-\	te-	.
=85-	=85-	=85-
2cc,<\	-dÿ	.
*	*ij	*
4cc\	spi	.
4cc\	te-	.
=86-	=86-	=86-
2cc,<\	-dÿ	.
*	*Xij	*
2cc\	dzie-	.
=87-	=87-	=87-
2b-\	-ciąt-	.
2a\	-ko	.
=88-	=88-	=88-
2g/	do-	.
2g/	-stoi-	.
=89-	=89-	=89-
1a\	-ne	.
=90-	=90-	=90-
1r	.	.
=91-	=91-	=91-
4a\	nÿ-	.
4g/	-nai	.
*	*ij	*
4a\	nÿ-	.
4g/	-nai	.
*	*Xij	*
=92-	=92-	=92-
4a\	nÿ-	.
4g/	-nai	.
*	*ij	*
4a\	nÿ-	.
!LO:SIC:v:t=custos cc	!	!
4g/	-nai	.
*	*Xij	*
=93-	=93-	=93-
!LO:LB:g=original	!	!
2cc\	dzie-	.
2cc\	-ciot-	.
=94-	=94-	=94-
1a\	-ko	.
=95-	=95-	=95-
1r	.	.
=96-	=96-	=96-
4dd\	nÿ-	.
4b-\	-nai	.
*	*ij	*
4dd\	nÿ-	.
4b-\	-nai	.
*	*Xij	*
=97-	=97-	=97-
4dd\	nÿ-	.
4b-\	-nai,	.
*	*ij	*
4dd\	nÿ-	.
4b-\	-nai	.
*	*Xij	*
=98-	=98-	=98-
2dd\	dzie-	.
2dd\	-ciot-	.
=99-	=99-	=99-
1b-\	-ko,	.
=100-	=100-	=100-
1r	.	.
=101-	=101-	=101-
4cc\	nÿ-	.
4a\	-nai	.
*	*ij	*
4cc\	nÿ-	.
4a\	-nai	.
*	*Xij	*
=102-	=102-	=102-
4cc\	nÿ-	.
4a\	-nai	.
*	*ij	*
4cc\	nÿ-	.
4a\	-nai	.
*	*Xij	*
=103-	=103-	=103-
2g/	dzie-	.
!LO:SIC:v:t=custos cc	!	!
2cc\	-ciot-	.
=104-	=104-	=104-
!LO:LB:g=original	!	!
2cc\	-ko	.
2.a\	prze-	.
=105-	=105-	=105-
.	.	.
4g/	.	.
2.f/	-ros-	.
=106-	=106-	=106-
.	.	.
4g/	-koſz-	.
2a,<\	-ne	.
=107-	=107-	=107-
4f/	prze-	.
4g/	-ros-	.
4b-\	-kosz-	.
4cc\	-ne	.
=108-	=108-	=108-
4b-\	pa-	.
4a\	-cho-	.
4b-\	-ląt-	.
!LO:TX:t=P:problem:niewyraźne źródło	!	!
4a,<\	-ko	.
=109-	=109-	=109-
4a\	prze-	.
4g/	-ros-	.
4f/	-kosz-	.
4e/	-ne	.
=110-	=110-	=110-
2.d/	.	.
4e,</	.	.
=111-	=111-	=111-
4f/	pa-	.
4g/	-cho-	.
2a\	-ląt-	.
=112-	=112-	=112-
!LO:SIC:v:t=custos g	!	!
1b-\	-ko	.
=113-	=113-	=113-
!LO:LB:g=original	!	!
2g/	pa-	.
1cc\	-cho-	.
=114-	=114-	=114-
.	.	.
2cc\	-ląt-	.
=115-	=115-	=115-
1a\;l	-ko;	.
==	==	==
*-	*-	*-
!!!ENC: Katarzyna Serwa
!!!END: 2021-10-20
!!!RDF**kern: < = below
!!!RDF**kern: l = terminal long
!!!EED: Andrzej Borzym
!!!EST: 2021-10-23
